X:1
T:1. Johannesbrief 4,9
T:10. Chor
C:1. Johannesbrief 4,9
%%score 1 2
L:1/8
Q:1/4=80
M:4/4
K:D
V:1 treble nm="Sopran" snm="S."
V:2 bass nm="Bass" snm="B."
V:1
 A | d2 dd d/c/c/d/ d/c/c/d/ | ef gf/e/ f2 z A | B3 c d/c/d z A | B3 c d/c/d z d | (d2 c)g ffff | %6
w: Da-|ran ist er- sch ie nen die Lie- * be *|Got- tes ge- gen * uns, die|Lie- be Got- * tes, die|Lie- be Got- * tes die|Lie- * be Got- tes ge- gen|
 e2 z c f2 ff | BBBB e2 z c | dddd c2 z B | c2 ^dd e2 BB | c>c ^d>d e2 z A | f2 d2 c2 B2 | %12
w: uns, dass Gott sei- nen|ein- ge- bor- nen Sohn ge-|sandt hat in die Welt, dass|Gott sei- nen Sohn, sei- nen|ein- ge- bor- nen Sohn ge-|sandt hat in die|
 A2 z2 z4 ||[M:3/4][Q:1/4=92] A2 d2 f2 | B2 e3 d | cB cd/c/ Bc/B/ | AB/c/ de/f/ ga/g/ | fe/d/ e4 | %18
w: Welt,|dass wir durch|ihn le- *|||* ben * sol-|
 dA Bc d2- | d2 c2 B2 | A3 B c2 | d2 cd/e/ fg/f/ | ea ^gf ed | c2 fe dc | dc BA Bc/d/ | e4 d2 | %26
w: len, dass wir durch ihn,|_ durch ihn|le- * *||* ben sol- * * *|len, le- * * *|||
 cd/e/ fe d2- | de/f/ ge Tdc | d2 e2 d2 | g2 ef gf/e/ | a2 A2 z2 | z6 | z6 | A2 d2 f2 | B2 e3 d | %35
w: |* * * * ben sol- *|len, durch ihn|le- * * * * *|* ben,|||dass wir durch|ihn le- *|
 cB cd/c/ Bc/B/ | AB/c/ de/f/ ga/g/ | fe/d/ e4 | d2 d2 d2 | dg fe d=c | B^d ed ed | e2 e2 e2 | %42
w: ||* ben * sol-|len, durch ihn|le- * * * * *|ben, dass wir durch ihn, durch|ihn, durch ihn|
 ea ^gf ed | c2 cd/e/ fg/f/ | ed cd/e/ fg/f/ | eg fe dc | d2 z4 | z6 | z6 | z6 | A2 d2 f2 | %51
w: le- ben sol- * * *|len, le- * * * * *||* ben sol- * * *|len,||||dass wir durch|
 B2 e3 d | cB cd/c/ Bc/B/ | AB/c/ de/f/ ga/g/ | fe/d/ e4 | d2 z2 z2 | z6 | z A Bc de | %58
w: ihn le- *|||* ben * sol-|len,||dass wir durch ihn, durch|
 f2 de/f/ ga/g/ | fe de/f/ ga/g/ | f2 a4- | ag/f/ g3 f/e/ | f>g (f2 e2) | d2 a4- | ag/f/ g3 f/e/ | %65
w: ihn le- * * * * *||ben, le-||* ben sol- *|len, le-||
 f>g (f2 e2) | d6 |] %67
w: * ben sol- *|len.|
V:2
 D, | D2 D,F, A,A,/A,/ A,A, | A,A,A,A, D2 z D, | D,3 D, D,D, z D, | D,3 D, D,D, z B, | %5
w: Da-|ran ist er- sch- nen die Lie- be|Got- tes ge- gen uns, die|Lie- be Got- tes, die|Lie- be Got- tes, die|
 E,2 A,2 D,D,^G,G, | A,2 z A, D2 DD | DDDD C2 z A, | B,B,B,B, A,2 z ^G, | A,2 F,F, E,2 E,E, | %10
w: Lie- be Got- tes ge- gen|uns, dass Gott sei- nen|ein- ge- bor- nen Sohn ge-|sandt hat in die Welt, dass|Gott sei- nen Sohn sei- nen|
 E,>E, E,>E, E,2 z C, | D,2 D,2 E,2 E,2 | A,,2 z2 z4 ||[M:3/4] z6 | z6 | z6 | z6 | z6 | z6 | z6 | %20
w: ein- ge- bor- nen Sohn ge-|sandt hat in die|Welt,||||||||
 z6 | z6 | z6 | z6 | z6 | z6 | z6 | z6 | D,2 G,2 B,2 | E,2 A,3 G, | F,E, F,G,/F,/ E,F,/E,/ | %31
w: ||||||||dass wir durch|ihn le- *||
 D,F,/G,/ A,B,/C/ DE/D/ | CB,/A,/ B,4 | A,2 z F, D,F, | G,2 G,F, E,F,/G,/ | A,3 B,/A,/ G,A,/G,/ | %36
w: |* ben * sol-|len, dass wir durch|ihn le- * * * *||
 F,3 G,/F,/ E,F,/E,/ | D,3 E,/D,/ C,B,,/C,/ | D,E,/F,/ G,A,/B,/ =CD/C/ | B,A,/G,/ A,4 | %40
w: |||* ben * sol-|
 G,2 z F, G,F, | E,F,/^G,/ A,B,/C/ DE/D/ | CB,/A,/ B,4 | A,2 z4 | z6 | A,,2 D,2 F,2 | B,,2 E,3 D, | %47
w: len, dass wir durch|ihn le- * * * * * * *|* ben * sol-|len,||dass wir durch|ihn le- *|
 C,B,, C,D,/C,/ B,,C,/B,,/ | A,,B,,/C,/ D,E,/F,/ G,A,/G,/ | F,E,/D,/ E,4 | D,2 z2 z2 | %51
w: ||* ben * sol-|len,|
 D,2 G,2 B,2 | E,2 A,3 G, | F,E, F,G,/F,/ E,F,/E,/ | D,2 (A,2 A,,2) | D,2 D,E,/F,/ G,A,/G,/ | %56
w: dass wir durch|ihn le- *||ben sol- *|len, le- * * * * *|
 F,E, D,E,/F,/ G,A,/G,/ | F,4 E,2 | D,2 D2 D2 | D6 | D2 z D,/E,/ F,G,/A,/ | B,2 E,F,/G,/ A,B,/C/ | %62
w: ||ben, durch ihn|le-|ben, le- * * * *||
 D>G, A,2 A,,2 | D,2 z D,/E,/ F,G,/A,/ | B,2 E,F,/G,/ A,B,/C/ | D>G, (A,2 A,,2) | D,6 |] %67
w: * ben sol- *|len, le- * * * *||* ben sol- *|len.|

